X:709
T:Crackens 
C:Joe Buchanan's Scottish Tome - Page 232.2
I:232 2
Z:Carl Allison
R:Reel
L:1/8
M:4/4
K:D
a^g | "D" a2 f2 "A/D"fedB | "D" A2 a2 "A/D"afed | "E/A7"c2 A2 "A7"^ga=ge | "Bm"defb "C#/A7"a3 ^g |
"D"a2 Aa "A/D"fAdA | "D"B2 A2 "A/D"afed | "E/A7"c2 A2 "A7"^ga=ge | "D"d2 d2 d2 :|
ed | "A7"cAeA "E/A7"gAeA | "D"dAfA "F#/D"gAaA | "A7"cAeA "E/A7"gAeA | "D"dABc "A7"defg |
"D"a2 f2 "A/D"fedB | "D"A2 a2 "A/D"afed | "E/A7"c2 A2 "A7"gaae | "D"d2 d2 d2 ed |
"A7"cAeA "E/A7"gAeA | "D"dAfA "A/D"gAaA | "A7"cAeA "E/A7"gAeA | "Bm"dABc "C#/A7"defg |
"D"a2 Aa "A/D"fAdA | "D"B2 A2 "F#/D"afed | "E/A7"c2 A2 "A7"^ga=ge | "D"d2 d2 d2 |]

